images/about_icon-2.svg

<svg width="46" height="46" viewBox="0 0 46 46" fill="none" xmlns="http://www.w3.org/2000/svg">
<rect opacity="0.1" width="46" height="46" rx="5" fill="#FE753F"/>
<path d="M29.662 22.4352H16.3287C15.8426 22.4352 15.4259 22.8287 15.4259 23.338V24.3333H30.5416V23.338C30.5648 22.8287 30.1481 22.4352 29.662 22.4352Z" fill="#FE753F"/>
<path d="M32.7407 16H13.25C12.5556 16 12 16.5556 12 17.25V23.1065C12 23.8009 12.5556 24.3565 13.25 24.3565H14.3843V23.3611C14.3843 22.2731 15.2639 21.4167 16.3287 21.4167H29.662C30.75 21.4167 31.6065 22.2963 31.6065 23.3611V24.3565H32.7407C33.4352 24.3565 33.9907 23.8009 33.9907 23.1065V17.2269C33.9907 16.5556 33.4352 16 32.7407 16ZM27.8333 19.0093H26.5602C26.2593 19.0093 26.0278 18.7778 26.0278 18.4769C26.0278 18.1759 26.2593 17.9444 26.5602 17.9444H27.8333C28.1343 17.9444 28.3657 18.1759 28.3657 18.4769C28.3426 18.7546 28.1111 19.0093 27.8333 19.0093ZM31.0741 19.0093H29.8009C29.5 19.0093 29.2685 18.7778 29.2685 18.4769C29.2685 18.1759 29.5 17.9444 29.8009 17.9444H31.0741C31.375 17.9444 31.6065 18.1759 31.6065 18.4769C31.6065 18.7546 31.375 19.0093 31.0741 19.0093Z" fill="#FE753F"/>
<path d="M25.1018 26.9259L25.3333 26.5324C25.4954 26.2778 25.4028 25.9306 25.1481 25.7685C24.8935 25.6065 24.5463 25.6991 24.3843 25.9537L24.1528 26.3472C23.6898 27.1111 23.7593 28.0834 24.3148 28.7547C24.5463 29.0324 24.5926 29.4259 24.4537 29.75L24.2454 30.213C24.1296 30.4908 24.2685 30.8148 24.5463 30.9537C24.6157 30.9769 24.6852 31 24.7546 31C24.963 31 25.1713 30.8611 25.2639 30.6528L25.4722 30.1898C25.7731 29.4722 25.6574 28.6621 25.1713 28.0602C24.9167 27.7361 24.8935 27.2963 25.1018 26.9259Z" fill="#FE753F"/>
<path d="M21.6064 26.9259L21.8379 26.5324C21.9999 26.2778 21.9074 25.9306 21.6527 25.7685C21.3981 25.6065 21.0509 25.6991 20.8888 25.9537L20.6574 26.3472C20.1944 27.1111 20.2638 28.0834 20.8194 28.7547C21.0509 29.0324 21.0972 29.4259 20.9583 29.75L20.7499 30.213C20.6342 30.4908 20.7731 30.8148 21.0509 30.9537C21.1203 30.9769 21.1898 31 21.2592 31C21.4675 31 21.6759 30.8611 21.7685 30.6528L21.9768 30.1898C22.2777 29.4722 22.162 28.6621 21.6759 28.0602C21.4212 27.7361 21.3981 27.2963 21.6064 26.9259Z" fill="#FE753F"/>
<path d="M28.5972 26.9259L28.8287 26.5324C28.9907 26.2778 28.8981 25.9306 28.6435 25.7685C28.3889 25.6065 28.0417 25.6991 27.8796 25.9537L27.6481 26.3472C27.1852 27.1111 27.2546 28.0834 27.8102 28.7547C28.0417 29.0324 28.0879 29.4259 27.9491 29.75L27.7407 30.213C27.625 30.4908 27.7639 30.8148 28.0417 30.9537C28.1111 30.9769 28.1805 31 28.25 31C28.4583 31 28.6667 30.8611 28.7592 30.6528L28.9676 30.1898C29.2685 29.4722 29.1528 28.6621 28.6667 28.0602C28.412 27.7361 28.3889 27.2963 28.5972 26.9259Z" fill="#FE753F"/>
<path d="M18.1112 26.9259L18.3427 26.5324C18.5047 26.2778 18.4121 25.9306 18.1575 25.7685C17.9029 25.6065 17.5556 25.6991 17.3936 25.9537L17.1621 26.3472C16.6991 27.1111 16.7686 28.0834 17.3241 28.7547C17.5556 29.0324 17.6019 29.4259 17.463 29.75L17.2547 30.213C17.139 30.4908 17.2779 30.8148 17.5556 30.9537C17.6251 30.9769 17.6945 31 17.764 31C17.9723 31 18.1806 30.8611 18.2732 30.6528L18.4816 30.1898C18.7825 29.4722 18.6667 28.6621 18.1806 28.0602C17.926 27.7361 17.9029 27.2963 18.1112 26.9259Z" fill="#FE753F"/>
</svg>

<svg width="46" height="46" fill="none" xmlns="http://www.w3.org/2000/svg"><rect opacity=".1" width="46" height="46" rx="5" fill="#FE753F"/><path d="M29.662 22.435H16.329a.904.904 0 00-.903.903v.995h15.116v-.995a.87.87 0 00-.88-.903z" fill="#FE753F"/><path d="M32.74 16H13.25c-.694 0-1.25.556-1.25 1.25v5.857c0 .694.556 1.25 1.25 1.25h1.134v-.996c0-1.088.88-1.944 1.945-1.944h13.333c1.088 0 1.945.88 1.945 1.944v.995h1.134c.694 0 1.25-.555 1.25-1.25v-5.88A1.24 1.24 0 0032.74 16zm-4.907 3.01H26.56a.524.524 0 01-.532-.533c0-.301.231-.533.532-.533h1.273c.301 0 .533.232.533.533-.023.278-.255.532-.533.532zm3.241 0h-1.273a.524.524 0 01-.532-.533c0-.301.231-.533.532-.533h1.273c.301 0 .532.232.532.533a.538.538 0 01-.532.532zm-5.972 7.916l.231-.394c.162-.254.07-.601-.185-.764-.255-.162-.602-.069-.764.186l-.231.393a2.09 2.09 0 00.162 2.408.972.972 0 01.139.995l-.209.463c-.115.278.023.602.301.74.07.024.14.047.209.047a.578.578 0 00.509-.347l.208-.463a2.09 2.09 0 00-.3-2.13 1.013 1.013 0 01-.07-1.134zm-3.496 0l.232-.394c.162-.254.07-.601-.185-.764-.255-.162-.602-.069-.764.186l-.232.393a2.09 2.09 0 00.162 2.408.972.972 0 01.14.995l-.21.463c-.115.278.024.602.302.74.07.024.139.047.208.047a.578.578 0 00.51-.347l.208-.463a2.09 2.09 0 00-.301-2.13 1.013 1.013 0 01-.07-1.134zm6.991 0l.232-.394c.162-.254.07-.601-.186-.764-.254-.162-.601-.069-.763.186l-.232.393a2.09 2.09 0 00.162 2.408.972.972 0 01.14.995l-.21.463c-.115.278.024.602.302.74.07.024.138.047.208.047a.578.578 0 00.51-.347l.208-.463a2.09 2.09 0 00-.301-2.13 1.013 1.013 0 01-.07-1.134zm-10.486 0l.232-.394c.162-.254.07-.601-.186-.764-.254-.162-.601-.069-.763.186l-.232.393a2.09 2.09 0 00.162 2.408.972.972 0 01.139.995l-.208.463c-.116.278.023.602.3.74.07.024.14.047.209.047a.578.578 0 00.51-.347l.208-.463a2.09 2.09 0 00-.301-2.13 1.013 1.013 0 01-.07-1.134z" fill="#FE753F"/></svg>
